X:80
T:Drunken Tinker
Z: id:dc-reel-73
M:C
L:1/8
K:A Mixolydian
EAAG EGDG|EAA2 fAeA|EAAG EDEF|G2BG dGBG:|!
A2eA fAeA|fAeA dBGB|A2eA fAeA|dcdB GABG|!
A2eA fAeA|fAeA dBGB|edef gfge|dcdB GABG|]!

